tools/download-figma-icons/icons/outlined-large/food-2.svg

<svg xmlns="http://www.w3.org/2000/svg" width="64" height="64" fill="none" viewBox="0 0 64 64"><path fill="currentColor" fill-rule="evenodd" d="M24.5 54C12.645 54 3 44.355 3 32.5S12.645 11 24.5 11 46 20.645 46 32.5 36.355 54 24.5 54m0-46C10.99 8 0 18.99 0 32.5S10.99 57 24.5 57 49 46.01 49 32.5 38.01 8 24.5 8m0 38C17.056 46 11 39.944 11 32.5S17.056 19 24.5 19 38 25.056 38 32.5 31.944 46 24.5 46m0-30C15.402 16 8 23.402 8 32.5S15.402 49 24.5 49 41 41.598 41 32.5 33.598 16 24.5 16m33 36c.827 0 1.5-.673 1.5-1.5v-18c0-.827-.673-1.5-1.5-1.5s-1.5.673-1.5 1.5v18c0 .827.673 1.5 1.5 1.5m0-39c-2.769 0-3.5 2.943-3.5 4.5 0 3.341 1.374 5.5 3.5 5.5 1.832 0 3.5-2.621 3.5-5.5 0-1.868-1.086-4.5-3.5-4.5M59 25.763v2.513c1.742.621 3 2.271 3 4.224v18c0 2.481-2.019 4.5-4.5 4.5a4.505 4.505 0 0 1-4.5-4.5v-18c0-1.953 1.258-3.603 3-4.224v-2.477c-2.672-.704-5-3.342-5-8.299 0-3.727 2.232-7.5 6.5-7.5 4.068 0 6.5 3.813 6.5 7.5 0 4.011-2.138 7.373-5 8.263" clip-rule="evenodd"/></svg>

<svg width="64" height="64" viewBox="0 0 64 64" fill="none" xmlns="http://www.w3.org/2000/svg">
<path fill-rule="evenodd" clip-rule="evenodd" d="M24.5 54C12.645 54 3 44.355 3 32.5C3 20.645 12.645 11 24.5 11C36.355 11 46 20.645 46 32.5C46 44.355 36.355 54 24.5 54ZM24.5 8C10.99 8 0 18.99 0 32.5C0 46.01 10.99 57 24.5 57C38.01 57 49 46.01 49 32.5C49 18.99 38.01 8 24.5 8ZM24.5 46C17.056 46 11 39.944 11 32.5C11 25.056 17.056 19 24.5 19C31.944 19 38 25.056 38 32.5C38 39.944 31.944 46 24.5 46ZM24.5 16C15.402 16 8 23.402 8 32.5C8 41.598 15.402 49 24.5 49C33.598 49 41 41.598 41 32.5C41 23.402 33.598 16 24.5 16ZM57.5 52C58.327 52 59 51.327 59 50.5V32.5C59 31.673 58.327 31 57.5 31C56.673 31 56 31.673 56 32.5V50.5C56 51.327 56.673 52 57.5 52ZM57.5 13C54.731 13 54 15.943 54 17.5C54 20.841 55.374 23 57.5 23C59.332 23 61 20.379 61 17.5C61 15.632 59.914 13 57.5 13ZM59 25.763V28.276C60.742 28.897 62 30.547 62 32.5V50.5C62 52.981 59.981 55 57.5 55C55.019 55 53 52.981 53 50.5V32.5C53 30.547 54.258 28.897 56 28.276V25.799C53.328 25.095 51 22.457 51 17.5C51 13.773 53.232 10 57.5 10C61.568 10 64 13.813 64 17.5C64 21.511 61.862 24.873 59 25.763Z" fill="black"/>
</svg>
